icons/desktop/16/svg/permission-16.svg

<svg width="16" height="16" viewBox="0 0 16 16" fill="none" xmlns="http://www.w3.org/2000/svg">
<path fill-rule="evenodd" clip-rule="evenodd" d="M2.41211 8.05642C4.522 7.65344 6.34709 9.4778 5.94434 11.5877C5.72034 12.7607 4.76089 13.7201 3.58789 13.9441C1.47803 14.3469 -0.346339 12.5218 0.0566406 10.4119C0.28069 9.23902 1.23924 8.28047 2.41211 8.05642ZM3 9.49978C2.17316 9.49989 1.50011 10.1729 1.5 10.9998C1.5 11.8267 2.17309 12.4997 3 12.4998C3.827 12.4998 4.5 11.8268 4.5 10.9998C4.49989 10.1729 3.82693 9.49978 3 9.49978Z" fill="black"/>
<path d="M15.25 10.4998C15.6639 10.4998 15.9999 10.8359 16 11.2498C16 11.6638 15.664 11.9998 15.25 11.9998H7.11914C7.19712 11.6778 7.25 11.3457 7.25 10.9998C7.24997 10.8289 7.21921 10.6657 7.19922 10.4998H15.25Z" fill="black"/>
<path fill-rule="evenodd" clip-rule="evenodd" d="M10.0566 5.58767C9.65382 3.47783 11.4781 1.6536 13.5879 2.05642C14.7609 2.28041 15.7203 3.23892 15.9443 4.41189C16.3473 6.52189 14.5221 8.34711 12.4121 7.94411C11.2391 7.72009 10.2806 6.76065 10.0566 5.58767ZM13 3.49978C12.1732 3.49989 11.5001 4.17294 11.5 4.99978C11.5 5.82671 12.1731 6.49967 13 6.49978C13.827 6.49978 14.5 5.82678 14.5 4.99978C14.4999 4.17287 13.8269 3.49978 13 3.49978Z" fill="black"/>
<path d="M8.80078 4.49978C8.78079 4.66571 8.75003 4.82885 8.75 4.99978C8.75 5.34568 8.8029 5.67786 8.88086 5.99978H0.75C0.336084 5.99968 0 5.66372 0 5.24978C0.000115515 4.83594 0.336155 4.49988 0.75 4.49978H8.80078Z" fill="black"/>
</svg>

<!-- This Source Code Form is subject to the terms of the Mozilla Public
   - License, v. 2.0. If a copy of the MPL was not distributed with this
   - file, You can obtain one at http://mozilla.org/MPL/2.0/. -->
<svg xmlns="http://www.w3.org/2000/svg" width="16" height="16" fill="context-fill" fill-opacity="context-fill-opacity" viewBox="0 0 16 16">
    <path fill-rule="evenodd" d="M2.412 8.056a3.006 3.006 0 0 1 3.532 3.532 3.01 3.01 0 0 1-2.356 2.356 3.006 3.006 0 0 1-3.531-3.532 3.01 3.01 0 0 1 2.355-2.356M3 9.5c-.827 0-1.5.673-1.5 1.5s.673 1.5 1.5 1.5 1.5-.673 1.5-1.5S3.827 9.5 3 9.5" clip-rule="evenodd" />
    <path d="M15.25 10.5a.75.75 0 0 1 0 1.5H7.12a4.2 4.2 0 0 0 .13-1c0-.171-.03-.334-.05-.5z" />
    <path fill-rule="evenodd" d="M10.057 5.588a3.006 3.006 0 0 1 3.53-3.532 3.01 3.01 0 0 1 2.357 2.356 3.007 3.007 0 0 1-3.532 3.532 3.01 3.01 0 0 1-2.355-2.356M13 3.5c-.827 0-1.5.673-1.5 1.5s.673 1.5 1.5 1.5 1.5-.673 1.5-1.5-.673-1.5-1.5-1.5" clip-rule="evenodd" />
    <path d="M8.8 4.5c-.02.166-.05.329-.05.5 0 .346.053.678.13 1H.75a.75.75 0 0 1 0-1.5z" />
</svg>
